X:1
T:All for Jesus
T:All for Jesus
T:Frederick Augustus Fillmore, 1893
T:Elizabeth (Libbie) Crowell Morgan (1840-1886)
T:Public Domain Courtesy of the Cyber Hymnal™
T:Public Domain Courtesy of the Cyber Hymnal™
C:Frederick Augustus Fillmore, 1893
Z:Public Domain
Z:Courtesy of the Cyber Hymnal™
%%score ( 1 2 ) ( 3 4 )
L:1/8
Q:1/4=102
M:6/8
K:Bb
V:1 treble 
V:2 treble 
V:3 bass 
V:4 bass 
V:1
 [DF]2 [DF] [^C=E]2 [DF] | [EG]2 [DF] [DF]2 [B,D] | [DF]2 [B,D] [CE]2 [A,C] | [B,D]6 | %4
w: 1.~Con- se- crat- ed|lives He’s ask- ing,|Hear the Mas- ter’s|call,|
w: 2.~Who will lift His|droop- ing ban- ner,|Bear it brave- ly|on?|
w: 3.~All for us He|gave so free- ly,|Left His home a-|bove,|
w: 4.~Hum- bly at Thy|feet, dear Sav- ior,|We would lay our|all,|
 [DF]2 [DF] [^C=E]2 [DF] | [EG]2 [DF] [DF]2 [DB] | [CA]2 [CF] [CG]2 [C=E] | [CF]6 | [FA]3 [FB]3 | %9
w: Plead- ing still for|Chris- tian work- ers,|Who will give Him|all?|All, all,|
w: Show- ing to the|world its col- ors,|’Till the vic- tory’s|won?|All, all,|
w: Bore our na- ture,|felt our sor- rows,|O what won- drous|love!|All, all,|
w: An- y- where to|la- bor for Thee,|Rea- dy at Thy|call.|All, all,|
 (cB)[FA] [FB]2 [DF] | [Fc]3 [Fc]3 | (ed)[Fc] [Fd]3 | [DB]3 [Fd]3 | (fe)[Fd] [Ge]2 [Gc] | %14
w: all * for Je- sus,|Who will|give * Him all?|All, all,|all * for Je- sus,|
w: all * for Je- sus,|Till the|victor- * y’s won,|All, all,|all * for Je- sus,|
w: all * for Je- sus,|O what|won- * drous love!|All, all,|all * for Je- sus,|
w: all * for Je- sus,|Rea- dy|at * Thy call,|All, all,|all * for Je- sus,|
 (BA)[FB] [Fd]2 [Ec] | [DB]6 |] %16
w: Who * will give Him|all?|
w: Till * the vic- tory’s|won.|
w: O * what won- drous|love!|
w: Rea- * dy at Thy|call.|
V:2
 x6 | x6 | x6 | x6 | x6 | x6 | x6 | x6 | x6 | F2 x4 | x6 | F2 x4 | x6 | F2 x4 | F2 x4 | x6 |] %16
V:3
 [B,,B,]2 [B,,B,] [B,,B,]2 [B,,B,] | [B,,B,]2 [B,,B,] [B,,B,]2 [B,,F,] | F,2 F, F,2 F, | [B,,F,]6 | %4
 [B,,B,]2 [B,,B,] [B,,G,]2 [B,,F,] | [B,,B,]2 [B,,B,] [B,,B,]2 [B,,F,] | %6
 [C,F,]2 [C,A,] [C,B,]2 [C,G,] | [F,A,]6 | [F,C]3 [F,D]3 | (EB,)[F,C] [B,D]2 B, | [F,A,]3 [F,B,]3 | %11
 (CB,)[F,A,] [B,,B,]3 | B,3 [B,,B,]3 | ([D,B,][C,A,])[B,,B,] [E,B,]2 [E,E] | %14
 (DC)[F,D] [F,B,]2 [F,A,] | [B,,B,]6 |] %16
V:4
 x6 | x6 | F,2 F, F,2 F, | x6 | x6 | x6 | x6 | x6 | x6 | F,2 x2 B, x | x6 | F,2 x4 | B,3 x3 | x6 | %14
 F,2 x4 | x6 |] %16

